X:1
T:Title
%%score { ( 1 3 ) | 2 }
L:1/8
M:3/4
K:Db
V:1 treble nm="Grand Piano"
V:3 treble 
V:2 bass 
V:1
 z2 z2 z[Q:1/4=92] F | F>D F3 A | B>F A3 [FA] | [Gd]>B A3 F |[M:2/4] [CE]4 |[M:1/4] F2 | %6
[M:3/4] F>D F3 A | B>F A3 [FB] | [Fc]3 [FA] [_F=G][Fc] |[M:2/4] [CF]4 |[M:1/4] [CF]2 | %11
[M:3/4] [=DF][DF] [EG]3 [DF] | F>E E3 E | e3 [Cc] [CB][C=A] |[M:2/4] [DA]4 |[M:1/4] [FA]2 | %16
[M:3/4] [Af]>[Fd] [FA]3 d | d>D [DB]3 [DB] | [DA]3 [DA] [CG]>[EG] |[M:2/4] [DF]4 |[M:1/4] [FA]2 | %21
[M:3/4] [Fd]>[Fd] [Dd]3 D | z2 B4 | [DA] [DF]3 [CE]>D |[M:5/8] D- D3 z |] %25
V:2
 z2 z2 z [D,A,D] | [D,A,D]>[D,F,A,] [D,A,D]3 [D,F,D] | [D,F,D]>[D,A,D] [D,F,D]3 [D,_C] | %3
 [D,B,]>[D,G,D] [D,F,D]3 [D,A,D] |[M:2/4] [A,,A,]4 |[M:1/4] [D,A,D]2 | %6
[M:3/4] [D,A,D]>[D,F,A,] [D,A,D]3 [D,F,D] | [D,F,D]>[D,A,D] [D,F,D]3 [D,A,] | %8
 [C,A,]3 [C,C] [C,C][C,B,] |[M:2/4] [F,A,]4 |[M:1/4] [F,A,]2 | %11
[M:3/4] [B,,A,][B,,B,] [B,,B,]3 [B,,B,] | [E,=G,D]>[E,G,D] [E,G,D]3 [E,G,D] | %13
 [A,,G,C]3 [A,,G,] [A,,G,][A,,G,] |[M:2/4] [D,F,]4 |[M:1/4] [D,A,]2 | %16
[M:3/4] [D,D]>[D,A,] [D,D]3 [F,_CD] | [G,B,D]>G, [=G,,_F,]3 [G,,F,] | %18
 [A,,F,]3 [A,,F,] [A,,E,]>[A,,A,] |[M:2/4] [D,A,]4 |[M:1/4] [D,A,]2 | %21
[M:3/4] [_C,A,]>[C,A,] [B,,G,]3 [B,,G,] | [A,,F,]>[A,,F,] [G,,G,]3 [=G,,_F,] | %23
 [A,,F,] [A,,A,]3 [A,,G,]>[D,F,A,] |[M:5/8] [D,F,A,]- [D,F,A,]3 z |] %25
V:3
 x6 | x6 | x6 | x6 |[M:2/4] x4 |[M:1/4] x2 |[M:3/4] x6 | x6 | x6 |[M:2/4] x4 |[M:1/4] x2 | %11
[M:3/4] x6 | x6 | x6 |[M:2/4] x4 |[M:1/4] x2 |[M:3/4] x6 | x6 | x6 |[M:2/4] x4 |[M:1/4] x2 | %21
[M:3/4] x6 | [_CD]>[CD] B, D2 [DB] | x6 |[M:5/8] x5 |] %25

